src/client/assets/pup/icons/lock.svg

<svg width="225" height="225" viewBox="0 0 225 225" fill="none" xmlns="http://www.w3.org/2000/svg">
<rect x="30.6863" y="112.711" width="116" height="116" transform="rotate(-45 30.6863 112.711)" fill="#A0A0A0"/>
<path d="M135.333 106.303H132.335H132.334H125.104H125.104H112.07H99.0372H99.0366H91.8065H91.806H88.8072C86.4366 106.303 84.5148 108.286 84.5148 110.732V144.167C84.5148 146.613 86.4366 148.596 88.8072 148.596H112.07H135.333C137.703 148.596 139.625 146.613 139.625 144.167V110.732C139.625 108.286 137.703 106.303 135.333 106.303Z" fill="#DC8744"/>
<path d="M125.076 92.7624V103.739H125.076H131.935V92.7624C131.935 81.148 123.311 71.6985 112.711 71.6985V79.2143C119.529 79.2143 125.076 85.2916 125.076 92.7624Z" fill="#3A556A"/>
<path d="M99.5214 103.739V92.7624C99.5214 85.2914 105.438 79.2143 112.711 79.2143V71.6985C101.404 71.6985 92.2046 81.148 92.2046 92.7624V103.739H92.205H99.5214Z" fill="#64798A"/>
<path d="M135.432 103.739H132.504H132.503H125.442H125.441H112.711V146.033H135.433C137.748 146.033 139.625 144.05 139.625 141.604V108.169C139.625 105.722 137.748 103.739 135.432 103.739Z" fill="#F6C358"/>
<path d="M99.9808 103.739H99.9803H92.9186H92.9181H89.989C87.6736 103.739 85.7964 105.722 85.7964 108.169V141.604C85.7964 144.05 87.6736 146.033 89.989 146.033H112.711V103.739H99.9808Z" fill="#FCD462"/>
<path d="M116.556 119.098C116.556 116.278 114.261 113.992 111.429 113.992C108.598 113.992 106.302 116.278 106.302 119.098C106.302 120.911 107.257 122.493 108.687 123.399L107.158 130.654H115.7L114.171 123.399C115.601 122.493 116.556 120.911 116.556 119.098Z" fill="#DC8744"/>
<g filter="url(#filter0_d_19_120)">
<mask id="path-8-inside-1_19_120" fill="white">
<path d="M27.3431 117.853C24.2189 114.729 24.2189 109.663 27.3431 106.539L106.539 27.3431C109.663 24.2189 114.729 24.2189 117.853 27.3431L197.049 106.539C200.173 109.663 200.173 114.729 197.049 117.853L117.853 197.049C114.729 200.173 109.663 200.173 106.539 197.049L27.3431 117.853Z"/>
</mask>
<g clip-path="url(#paint0_angular_19_120_clip_path)" data-figma-skip-parse="true" mask="url(#path-8-inside-1_19_120)"><g transform="matrix(0.0452548 0.0452548 -0.0452548 0.0452548 112.196 112.196)"><foreignObject x="-1250" y="-1250" width="2500" height="2500"><div xmlns="http://www.w3.org/1999/xhtml" style="background:conic-gradient(from 90deg,rgba(255, 255, 160, 1) 0deg,rgba(255, 215, 0, 1) 22.5deg,rgba(255, 255, 160, 1) 45deg,rgba(255, 215, 0, 1) 67.5deg,rgba(255, 255, 160, 1) 90deg,rgba(255, 215, 0, 1) 112.5deg,rgba(255, 255, 160, 1) 135deg,rgba(255, 215, 0, 1) 157.5deg,rgba(255, 255, 160, 1) 180deg,rgba(255, 215, 0, 1) 202.5deg,rgba(255, 255, 160, 1) 225deg,rgba(255, 215, 0, 1) 247.5deg,rgba(255, 255, 160, 1) 270deg,rgba(255, 215, 0, 1) 292.5deg,rgba(255, 255, 160, 1) 315deg,rgba(255, 215, 0, 1) 337.5deg,rgba(255, 255, 160, 0.9804) 360deg);height:100%;width:100%;opacity:1"></div></foreignObject></g></g><path d="M27.3431 106.539L38.6568 117.853L117.853 38.6568L106.539 27.3431L95.2254 16.0294L16.0294 95.2254L27.3431 106.539ZM117.853 27.3431L106.539 38.6568L185.735 117.853L197.049 106.539L208.362 95.2254L129.167 16.0294L117.853 27.3431ZM197.049 117.853L185.735 106.539L106.539 185.735L117.853 197.049L129.167 208.362L208.362 129.167L197.049 117.853ZM106.539 197.049L117.853 185.735L38.6568 106.539L27.3431 117.853L16.0294 129.167L95.2254 208.362L106.539 197.049ZM117.853 197.049L106.539 185.735C109.663 182.611 114.729 182.611 117.853 185.735L106.539 197.049L95.2254 208.362C104.598 217.735 119.794 217.735 129.167 208.362L117.853 197.049ZM197.049 106.539L185.735 117.853C182.611 114.729 182.611 109.663 185.735 106.539L197.049 117.853L208.362 129.167C217.735 119.794 217.735 104.598 208.362 95.2254L197.049 106.539ZM106.539 27.3431L117.853 38.6568C114.729 41.781 109.663 41.781 106.539 38.6568L117.853 27.3431L129.167 16.0294C119.794 6.65685 104.598 6.65685 95.2254 16.0294L106.539 27.3431ZM27.3431 106.539L16.0294 95.2254C6.65684 104.598 6.65684 119.794 16.0294 129.167L27.3431 117.853L38.6568 106.539C41.781 109.663 41.781 114.729 38.6568 117.853L27.3431 106.539Z" data-figma-gradient-fill="{&#34;type&#34;:&#34;GRADIENT_ANGULAR&#34;,&#34;stops&#34;:[{&#34;color&#34;:{&#34;r&#34;:1.0,&#34;g&#34;:1.0,&#34;b&#34;:0.62745100259780884,&#34;a&#34;:1.0},&#34;position&#34;:0.0},{&#34;color&#34;:{&#34;r&#34;:1.0,&#34;g&#34;:0.84313726425170898,&#34;b&#34;:0.0,&#34;a&#34;:1.0},&#34;position&#34;:0.06250},{&#34;color&#34;:{&#34;r&#34;:1.0,&#34;g&#34;:1.0,&#34;b&#34;:0.62745100259780884,&#34;a&#34;:1.0},&#34;position&#34;:0.1250},{&#34;color&#34;:{&#34;r&#34;:1.0,&#34;g&#34;:0.84313726425170898,&#34;b&#34;:0.0,&#34;a&#34;:1.0},&#34;position&#34;:0.18750},{&#34;color&#34;:{&#34;r&#34;:1.0,&#34;g&#34;:1.0,&#34;b&#34;:0.62745100259780884,&#34;a&#34;:1.0},&#34;position&#34;:0.250},{&#34;color&#34;:{&#34;r&#34;:1.0,&#34;g&#34;:0.84313726425170898,&#34;b&#34;:0.0,&#34;a&#34;:1.0},&#34;position&#34;:0.31250},{&#34;color&#34;:{&#34;r&#34;:1.0,&#34;g&#34;:1.0,&#34;b&#34;:0.62745100259780884,&#34;a&#34;:1.0},&#34;position&#34;:0.3750},{&#34;color&#34;:{&#34;r&#34;:1.0,&#34;g&#34;:0.84313726425170898,&#34;b&#34;:0.0,&#34;a&#34;:1.0},&#34;position&#34;:0.43750},{&#34;color&#34;:{&#34;r&#34;:1.0,&#34;g&#34;:1.0,&#34;b&#34;:0.62745100259780884,&#34;a&#34;:1.0},&#34;position&#34;:0.50},{&#34;color&#34;:{&#34;r&#34;:1.0,&#34;g&#34;:0.84313726425170898,&#34;b&#34;:0.0,&#34;a&#34;:1.0},&#34;position&#34;:0.56250},{&#34;color&#34;:{&#34;r&#34;:1.0,&#34;g&#34;:1.0,&#34;b&#34;:0.62745100259780884,&#34;a&#34;:1.0},&#34;position&#34;:0.6250},{&#34;color&#34;:{&#34;r&#34;:1.0,&#34;g&#34;:0.84313726425170898,&#34;b&#34;:0.0,&#34;a&#34;:1.0},&#34;position&#34;:0.68750},{&#34;color&#34;:{&#34;r&#34;:1.0,&#34;g&#34;:1.0,&#34;b&#34;:0.62745100259780884,&#34;a&#34;:1.0},&#34;position&#34;:0.750},{&#34;color&#34;:{&#34;r&#34;:1.0,&#34;g&#34;:0.84313726425170898,&#34;b&#34;:0.0,&#34;a&#34;:1.0},&#34;position&#34;:0.81250},{&#34;color&#34;:{&#34;r&#34;:1.0,&#34;g&#34;:1.0,&#34;b&#34;:0.62745100259780884,&#34;a&#34;:1.0},&#34;position&#34;:0.8750},{&#34;color&#34;:{&#34;r&#34;:1.0,&#34;g&#34;:0.84313726425170898,&#34;b&#34;:0.0,&#34;a&#34;:1.0},&#34;position&#34;:0.93750},{&#34;color&#34;:{&#34;r&#34;:1.0,&#34;g&#34;:1.0,&#34;b&#34;:0.62745100259780884,&#34;a&#34;:0.98039215803146362},&#34;position&#34;:1.0}],&#34;stopsVar&#34;:[{&#34;color&#34;:{&#34;r&#34;:1.0,&#34;g&#34;:1.0,&#34;b&#34;:0.62745100259780884,&#34;a&#34;:1.0},&#34;position&#34;:0.0},{&#34;color&#34;:{&#34;r&#34;:1.0,&#34;g&#34;:0.84313726425170898,&#34;b&#34;:0.0,&#34;a&#34;:1.0},&#34;position&#34;:0.06250},{&#34;color&#34;:{&#34;r&#34;:1.0,&#34;g&#34;:1.0,&#34;b&#34;:0.62745100259780884,&#34;a&#34;:1.0},&#34;position&#34;:0.1250},{&#34;color&#34;:{&#34;r&#34;:1.0,&#34;g&#34;:0.84313726425170898,&#34;b&#34;:0.0,&#34;a&#34;:1.0},&#34;position&#34;:0.18750},{&#34;color&#34;:{&#34;r&#34;:1.0,&#34;g&#34;:1.0,&#34;b&#34;:0.62745100259780884,&#34;a&#34;:1.0},&#34;position&#34;:0.250},{&#34;color&#34;:{&#34;r&#34;:1.0,&#34;g&#34;:0.84313726425170898,&#34;b&#34;:0.0,&#34;a&#34;:1.0},&#34;position&#34;:0.31250},{&#34;color&#34;:{&#34;r&#34;:1.0,&#34;g&#34;:1.0,&#34;b&#34;:0.62745100259780884,&#34;a&#34;:1.0},&#34;position&#34;:0.3750},{&#34;color&#34;:{&#34;r&#34;:1.0,&#34;g&#34;:0.84313726425170898,&#34;b&#34;:0.0,&#34;a&#34;:1.0},&#34;position&#34;:0.43750},{&#34;color&#34;:{&#34;r&#34;:1.0,&#34;g&#34;:1.0,&#34;b&#34;:0.62745100259780884,&#34;a&#34;:1.0},&#34;position&#34;:0.50},{&#34;color&#34;:{&#34;r&#34;:1.0,&#34;g&#34;:0.84313726425170898,&#34;b&#34;:0.0,&#34;a&#34;:1.0},&#34;position&#34;:0.56250},{&#34;color&#34;:{&#34;r&#34;:1.0,&#34;g&#34;:1.0,&#34;b&#34;:0.62745100259780884,&#34;a&#34;:1.0},&#34;position&#34;:0.6250},{&#34;color&#34;:{&#34;r&#34;:1.0,&#34;g&#34;:0.84313726425170898,&#34;b&#34;:0.0,&#34;a&#34;:1.0},&#34;position&#34;:0.68750},{&#34;color&#34;:{&#34;r&#34;:1.0,&#34;g&#34;:1.0,&#34;b&#34;:0.62745100259780884,&#34;a&#34;:1.0},&#34;position&#34;:0.750},{&#34;color&#34;:{&#34;r&#34;:1.0,&#34;g&#34;:0.84313726425170898,&#34;b&#34;:0.0,&#34;a&#34;:1.0},&#34;position&#34;:0.81250},{&#34;color&#34;:{&#34;r&#34;:1.0,&#34;g&#34;:1.0,&#34;b&#34;:0.62745100259780884,&#34;a&#34;:1.0},&#34;position&#34;:0.8750},{&#34;color&#34;:{&#34;r&#34;:1.0,&#34;g&#34;:0.84313726425170898,&#34;b&#34;:0.0,&#34;a&#34;:1.0},&#34;position&#34;:0.93750},{&#34;color&#34;:{&#34;r&#34;:1.0,&#34;g&#34;:1.0,&#34;b&#34;:0.62745100259780884,&#34;a&#34;:0.98039215803146362},&#34;position&#34;:1.0}],&#34;transform&#34;:{&#34;m00&#34;:90.509666442871094,&#34;m01&#34;:-90.509666442871094,&#34;m02&#34;:112.19594573974609,&#34;m10&#34;:90.509666442871094,&#34;m11&#34;:90.509666442871094,&#34;m12&#34;:21.686286926269531},&#34;opacity&#34;:1.0,&#34;blendMode&#34;:&#34;NORMAL&#34;,&#34;visible&#34;:true}" mask="url(#path-8-inside-1_19_120)"/>
</g>
<defs>
<filter id="filter0_d_19_120" x="0" y="0" width="224.392" height="224.392" filterUnits="userSpaceOnUse" color-interpolation-filters="sRGB">
<feFlood flood-opacity="0" result="BackgroundImageFix"/>
<feColorMatrix in="SourceAlpha" type="matrix" values="0 0 0 0 0 0 0 0 0 0 0 0 0 0 0 0 0 0 127 0" result="hardAlpha"/>
<feMorphology radius="5" operator="dilate" in="SourceAlpha" result="effect1_dropShadow_19_120"/>
<feOffset/>
<feGaussianBlur stdDeviation="10"/>
<feComposite in2="hardAlpha" operator="out"/>
<feColorMatrix type="matrix" values="0 0 0 0 1 0 0 0 0 0.843137 0 0 0 0 0 0 0 0 0.75 0"/>
<feBlend mode="normal" in2="BackgroundImageFix" result="effect1_dropShadow_19_120"/>
<feBlend mode="normal" in="SourceGraphic" in2="effect1_dropShadow_19_120" result="shape"/>
</filter>
<clipPath id="paint0_angular_19_120_clip_path"><path d="M27.3431 106.539L38.6568 117.853L117.853 38.6568L106.539 27.3431L95.2254 16.0294L16.0294 95.2254L27.3431 106.539ZM117.853 27.3431L106.539 38.6568L185.735 117.853L197.049 106.539L208.362 95.2254L129.167 16.0294L117.853 27.3431ZM197.049 117.853L185.735 106.539L106.539 185.735L117.853 197.049L129.167 208.362L208.362 129.167L197.049 117.853ZM106.539 197.049L117.853 185.735L38.6568 106.539L27.3431 117.853L16.0294 129.167L95.2254 208.362L106.539 197.049ZM117.853 197.049L106.539 185.735C109.663 182.611 114.729 182.611 117.853 185.735L106.539 197.049L95.2254 208.362C104.598 217.735 119.794 217.735 129.167 208.362L117.853 197.049ZM197.049 106.539L185.735 117.853C182.611 114.729 182.611 109.663 185.735 106.539L197.049 117.853L208.362 129.167C217.735 119.794 217.735 104.598 208.362 95.2254L197.049 106.539ZM106.539 27.3431L117.853 38.6568C114.729 41.781 109.663 41.781 106.539 38.6568L117.853 27.3431L129.167 16.0294C119.794 6.65685 104.598 6.65685 95.2254 16.0294L106.539 27.3431ZM27.3431 106.539L16.0294 95.2254C6.65684 104.598 6.65684 119.794 16.0294 129.167L27.3431 117.853L38.6568 106.539C41.781 109.663 41.781 114.729 38.6568 117.853L27.3431 106.539Z" mask="url(#path-8-inside-1_19_120)"/></clipPath></defs>
</svg>

<svg width="225" height="225" fill="none" xmlns="http://www.w3.org/2000/svg"><path fill="#A0A0A0" d="m30.686 112.711 82.024-82.024 82.025 82.024-82.025 82.025z"/><path d="M135.333 106.303H88.807c-2.37 0-4.292 1.983-4.292 4.429v33.435c0 2.446 1.922 4.429 4.292 4.429h46.526c2.37 0 4.292-1.983 4.292-4.429v-33.435c0-2.446-1.922-4.429-4.292-4.429z" fill="#DC8744"/><path d="M125.076 92.762v10.977h6.859V92.762c0-11.614-8.624-21.064-19.224-21.064v7.516c6.818 0 12.365 6.078 12.365 13.548z" fill="#3A556A"/><path d="M99.521 103.739V92.762c0-7.47 5.917-13.548 13.19-13.548v-7.516c-11.307 0-20.506 9.45-20.506 21.064v10.977h7.316z" fill="#64798A"/><path d="M135.432 103.739h-22.721v42.294h22.722c2.315 0 4.192-1.983 4.192-4.429v-33.435c0-2.447-1.877-4.43-4.193-4.43z" fill="#F6C358"/><path d="M99.98 103.739H89.99c-2.315 0-4.193 1.983-4.193 4.43v33.435c0 2.446 1.878 4.429 4.193 4.429h22.722v-42.294h-12.73z" fill="#FCD462"/><path d="M116.556 119.098c0-2.82-2.295-5.106-5.127-5.106-2.831 0-5.127 2.286-5.127 5.106 0 1.813.955 3.395 2.385 4.301l-1.529 7.255h8.542l-1.529-7.255c1.43-.906 2.385-2.488 2.385-4.301z" fill="#DC8744"/><g filter="url(#a)"><mask id="c" fill="#fff"><path d="M27.343 117.853a8 8 0 0 1 0-11.314l79.196-79.196a8 8 0 0 1 11.314 0l79.196 79.196a8 8 0 0 1 0 11.314l-79.196 79.196a8 8 0 0 1-11.314 0l-79.196-79.196z"/></mask><g clip-path="url(#b)" data-figma-skip-parse="true" mask="url(#c)"><foreignObject x="-1250" y="-1250" width="2500" height="2500" transform="rotate(45 -79.334 191.53) scale(.064)"><div xmlns="http://www.w3.org/1999/xhtml" style="background:conic-gradient(from 90deg,#ffffa0 0deg,gold 22.5deg,#ffffa0 45deg,gold 67.5deg,#ffffa0 90deg,gold 112.5deg,#ffffa0 135deg,gold 157.5deg,#ffffa0 180deg,gold 202.5deg,#ffffa0 225deg,gold 247.5deg,#ffffa0 270deg,gold 292.5deg,#ffffa0 315deg,gold 337.5deg,rgba(255,255,160,.9804) 360deg);height:100%;width:100%;opacity:1"/></foreignObject></g><path d="m27.343 106.539 11.314 11.314 79.196-79.196-11.314-11.314L95.225 16.03 16.03 95.225l11.314 11.314zm90.51-79.196-11.314 11.314 79.196 79.196 11.314-11.314 11.313-11.314-79.195-79.196-11.314 11.314zm79.196 90.51-11.314-11.314-79.196 79.196 11.314 11.314 11.314 11.313 79.195-79.195-11.313-11.314zm-90.51 79.196 11.314-11.314-79.196-79.196-11.314 11.314-11.314 11.314 79.196 79.195 11.314-11.313zm11.314 0-11.314-11.314a8 8 0 0 1 11.314 0l-11.314 11.314-11.314 11.313c9.373 9.373 24.569 9.373 33.942 0l-11.314-11.313zm79.196-90.51-11.314 11.314a8 8 0 0 1 0-11.314l11.314 11.314 11.313 11.314c9.373-9.373 9.373-24.569 0-33.942l-11.313 11.314zm-90.51-79.196 11.314 11.314a8 8 0 0 1-11.314 0l11.314-11.314 11.314-11.314c-9.373-9.372-24.569-9.372-33.942 0l11.314 11.314zM27.343 106.54 16.03 95.225c-9.372 9.373-9.372 24.569 0 33.942l11.314-11.314 11.314-11.314a8 8 0 0 1 0 11.314l-11.314-11.314z" data-figma-gradient-fill="{&quot;type&quot;:&quot;GRADIENT_ANGULAR&quot;,&quot;stops&quot;:[{&quot;color&quot;:{&quot;r&quot;:1.0,&quot;g&quot;:1.0,&quot;b&quot;:0.62745100259780884,&quot;a&quot;:1.0},&quot;position&quot;:0.0},{&quot;color&quot;:{&quot;r&quot;:1.0,&quot;g&quot;:0.84313726425170898,&quot;b&quot;:0.0,&quot;a&quot;:1.0},&quot;position&quot;:0.06250},{&quot;color&quot;:{&quot;r&quot;:1.0,&quot;g&quot;:1.0,&quot;b&quot;:0.62745100259780884,&quot;a&quot;:1.0},&quot;position&quot;:0.1250},{&quot;color&quot;:{&quot;r&quot;:1.0,&quot;g&quot;:0.84313726425170898,&quot;b&quot;:0.0,&quot;a&quot;:1.0},&quot;position&quot;:0.18750},{&quot;color&quot;:{&quot;r&quot;:1.0,&quot;g&quot;:1.0,&quot;b&quot;:0.62745100259780884,&quot;a&quot;:1.0},&quot;position&quot;:0.250},{&quot;color&quot;:{&quot;r&quot;:1.0,&quot;g&quot;:0.84313726425170898,&quot;b&quot;:0.0,&quot;a&quot;:1.0},&quot;position&quot;:0.31250},{&quot;color&quot;:{&quot;r&quot;:1.0,&quot;g&quot;:1.0,&quot;b&quot;:0.62745100259780884,&quot;a&quot;:1.0},&quot;position&quot;:0.3750},{&quot;color&quot;:{&quot;r&quot;:1.0,&quot;g&quot;:0.84313726425170898,&quot;b&quot;:0.0,&quot;a&quot;:1.0},&quot;position&quot;:0.43750},{&quot;color&quot;:{&quot;r&quot;:1.0,&quot;g&quot;:1.0,&quot;b&quot;:0.62745100259780884,&quot;a&quot;:1.0},&quot;position&quot;:0.50},{&quot;color&quot;:{&quot;r&quot;:1.0,&quot;g&quot;:0.84313726425170898,&quot;b&quot;:0.0,&quot;a&quot;:1.0},&quot;position&quot;:0.56250},{&quot;color&quot;:{&quot;r&quot;:1.0,&quot;g&quot;:1.0,&quot;b&quot;:0.62745100259780884,&quot;a&quot;:1.0},&quot;position&quot;:0.6250},{&quot;color&quot;:{&quot;r&quot;:1.0,&quot;g&quot;:0.84313726425170898,&quot;b&quot;:0.0,&quot;a&quot;:1.0},&quot;position&quot;:0.68750},{&quot;color&quot;:{&quot;r&quot;:1.0,&quot;g&quot;:1.0,&quot;b&quot;:0.62745100259780884,&quot;a&quot;:1.0},&quot;position&quot;:0.750},{&quot;color&quot;:{&quot;r&quot;:1.0,&quot;g&quot;:0.84313726425170898,&quot;b&quot;:0.0,&quot;a&quot;:1.0},&quot;position&quot;:0.81250},{&quot;color&quot;:{&quot;r&quot;:1.0,&quot;g&quot;:1.0,&quot;b&quot;:0.62745100259780884,&quot;a&quot;:1.0},&quot;position&quot;:0.8750},{&quot;color&quot;:{&quot;r&quot;:1.0,&quot;g&quot;:0.84313726425170898,&quot;b&quot;:0.0,&quot;a&quot;:1.0},&quot;position&quot;:0.93750},{&quot;color&quot;:{&quot;r&quot;:1.0,&quot;g&quot;:1.0,&quot;b&quot;:0.62745100259780884,&quot;a&quot;:0.98039215803146362},&quot;position&quot;:1.0}],&quot;stopsVar&quot;:[{&quot;color&quot;:{&quot;r&quot;:1.0,&quot;g&quot;:1.0,&quot;b&quot;:0.62745100259780884,&quot;a&quot;:1.0},&quot;position&quot;:0.0},{&quot;color&quot;:{&quot;r&quot;:1.0,&quot;g&quot;:0.84313726425170898,&quot;b&quot;:0.0,&quot;a&quot;:1.0},&quot;position&quot;:0.06250},{&quot;color&quot;:{&quot;r&quot;:1.0,&quot;g&quot;:1.0,&quot;b&quot;:0.62745100259780884,&quot;a&quot;:1.0},&quot;position&quot;:0.1250},{&quot;color&quot;:{&quot;r&quot;:1.0,&quot;g&quot;:0.84313726425170898,&quot;b&quot;:0.0,&quot;a&quot;:1.0},&quot;position&quot;:0.18750},{&quot;color&quot;:{&quot;r&quot;:1.0,&quot;g&quot;:1.0,&quot;b&quot;:0.62745100259780884,&quot;a&quot;:1.0},&quot;position&quot;:0.250},{&quot;color&quot;:{&quot;r&quot;:1.0,&quot;g&quot;:0.84313726425170898,&quot;b&quot;:0.0,&quot;a&quot;:1.0},&quot;position&quot;:0.31250},{&quot;color&quot;:{&quot;r&quot;:1.0,&quot;g&quot;:1.0,&quot;b&quot;:0.62745100259780884,&quot;a&quot;:1.0},&quot;position&quot;:0.3750},{&quot;color&quot;:{&quot;r&quot;:1.0,&quot;g&quot;:0.84313726425170898,&quot;b&quot;:0.0,&quot;a&quot;:1.0},&quot;position&quot;:0.43750},{&quot;color&quot;:{&quot;r&quot;:1.0,&quot;g&quot;:1.0,&quot;b&quot;:0.62745100259780884,&quot;a&quot;:1.0},&quot;position&quot;:0.50},{&quot;color&quot;:{&quot;r&quot;:1.0,&quot;g&quot;:0.84313726425170898,&quot;b&quot;:0.0,&quot;a&quot;:1.0},&quot;position&quot;:0.56250},{&quot;color&quot;:{&quot;r&quot;:1.0,&quot;g&quot;:1.0,&quot;b&quot;:0.62745100259780884,&quot;a&quot;:1.0},&quot;position&quot;:0.6250},{&quot;color&quot;:{&quot;r&quot;:1.0,&quot;g&quot;:0.84313726425170898,&quot;b&quot;:0.0,&quot;a&quot;:1.0},&quot;position&quot;:0.68750},{&quot;color&quot;:{&quot;r&quot;:1.0,&quot;g&quot;:1.0,&quot;b&quot;:0.62745100259780884,&quot;a&quot;:1.0},&quot;position&quot;:0.750},{&quot;color&quot;:{&quot;r&quot;:1.0,&quot;g&quot;:0.84313726425170898,&quot;b&quot;:0.0,&quot;a&quot;:1.0},&quot;position&quot;:0.81250},{&quot;color&quot;:{&quot;r&quot;:1.0,&quot;g&quot;:1.0,&quot;b&quot;:0.62745100259780884,&quot;a&quot;:1.0},&quot;position&quot;:0.8750},{&quot;color&quot;:{&quot;r&quot;:1.0,&quot;g&quot;:0.84313726425170898,&quot;b&quot;:0.0,&quot;a&quot;:1.0},&quot;position&quot;:0.93750},{&quot;color&quot;:{&quot;r&quot;:1.0,&quot;g&quot;:1.0,&quot;b&quot;:0.62745100259780884,&quot;a&quot;:0.98039215803146362},&quot;position&quot;:1.0}],&quot;transform&quot;:{&quot;m00&quot;:90.509666442871094,&quot;m01&quot;:-90.509666442871094,&quot;m02&quot;:112.19594573974609,&quot;m10&quot;:90.509666442871094,&quot;m11&quot;:90.509666442871094,&quot;m12&quot;:21.686286926269531},&quot;opacity&quot;:1.0,&quot;blendMode&quot;:&quot;NORMAL&quot;,&quot;visible&quot;:true}" mask="url(#c)"/></g><defs><clipPath id="b"><path d="m27.343 106.539 11.314 11.314 79.196-79.196-11.314-11.314L95.225 16.03 16.03 95.225l11.314 11.314zm90.51-79.196-11.314 11.314 79.196 79.196 11.314-11.314 11.313-11.314-79.195-79.196-11.314 11.314zm79.196 90.51-11.314-11.314-79.196 79.196 11.314 11.314 11.314 11.313 79.195-79.195-11.313-11.314zm-90.51 79.196 11.314-11.314-79.196-79.196-11.314 11.314-11.314 11.314 79.196 79.195 11.314-11.313zm11.314 0-11.314-11.314a8 8 0 0 1 11.314 0l-11.314 11.314-11.314 11.313c9.373 9.373 24.569 9.373 33.942 0l-11.314-11.313zm79.196-90.51-11.314 11.314a8 8 0 0 1 0-11.314l11.314 11.314 11.313 11.314c9.373-9.373 9.373-24.569 0-33.942l-11.313 11.314zm-90.51-79.196 11.314 11.314a8 8 0 0 1-11.314 0l11.314-11.314 11.314-11.314c-9.373-9.372-24.569-9.372-33.942 0l11.314 11.314zM27.343 106.54 16.03 95.225c-9.372 9.373-9.372 24.569 0 33.942l11.314-11.314 11.314-11.314a8 8 0 0 1 0 11.314l-11.314-11.314z" mask="url(#c)"/></clipPath><filter id="a" x="0" y="0" width="224.392" height="224.392" filterUnits="userSpaceOnUse" color-interpolation-filters="sRGB"><feFlood flood-opacity="0" result="BackgroundImageFix"/><feColorMatrix in="SourceAlpha" values="0 0 0 0 0 0 0 0 0 0 0 0 0 0 0 0 0 0 127 0" result="hardAlpha"/><feMorphology radius="5" operator="dilate" in="SourceAlpha" result="effect1_dropShadow_19_120"/><feOffset/><feGaussianBlur stdDeviation="10"/><feComposite in2="hardAlpha" operator="out"/><feColorMatrix values="0 0 0 0 1 0 0 0 0 0.843137 0 0 0 0 0 0 0 0 0.75 0"/><feBlend in2="BackgroundImageFix" result="effect1_dropShadow_19_120"/><feBlend in="SourceGraphic" in2="effect1_dropShadow_19_120" result="shape"/></filter></defs></svg>
